!!!OTL: WIE SCHOEN ISTS IM FREIEN
!!!ARE: Europa, Mitteleuropa, Deutschland
!!!SCT: F0262
!!!YEM: Copyright 1995, estate of Helmut Schaffrath.
**kern
*ICvox
*Ivox
*M3/8
*k[f#c#g#]
*A:
{8e
=1
8a
8g#
8a
=2
8b
8a}
{8e
=3
8cc#
8b
8cc#
=4
8dd
8cc#}
{8cc#
=5
8ee
8dd
8cc#
=6
4b
8cc#
=7
4b}
{8b
=8
8g#
8g#
8a
=9
8cc#
8b
16r}
{16b
=10
8cc#
8cc#
8dd
=11
8ff#
8ee
16r}
{16ee
=12
8ee
8cc#
8b
=13
4a
8b
=14
4a}
==
!!!AGN: Jugend - Lied, Belehrung, Natur
!!!ONB: ESAC (Essen Associative Code) Database: FINK
!!!AMT: simple triple
!!!AIN: vox
!!!EED: Helmut Schaffrath
!!!EEV: 1.0
*-
